img/CoinbaseLogo.svg

<svg xmlns="http://www.w3.org/2000/svg" width="122" height="28" viewBox="0 0 122 28">
  <path fill-rule="evenodd" d="M10.3385385,23.8901731 C11.2740192,23.8901731 12.1376731,23.7208462 12.9569038,23.3995 C12.9643847,23.4158655 14.6311412,26.0063157 14.6546326,26.0236664 C13.1459787,26.8353972 11.5688269,27.1921923 9.84526923,27.1921923 C4.71959615,27.1921923 0.999884615,23.8145962 0.999884615,18.4238269 C0.999884615,12.9946923 4.90940385,9.61709615 9.84526923,9.61709615 C11.6017115,9.61709615 12.9869038,9.99844231 14.3824808,10.7444038 C14.2277832,11.0001068 12.7928541,13.4382923 12.787,13.4481538 C11.9449808,13.1109423 11.0784423,12.9574808 10.1859423,12.9574808 C7.14901923,12.9574808 4.79517308,14.8936346 4.79517308,18.4238269 C4.79517308,21.7642115 7.07344231,23.8901731 10.3385385,23.8901731 Z M23.2653365,9.61709615 C28.3137019,9.61709615 31.958125,13.1856538 31.958125,18.4238269 C31.958125,23.6247885 28.3137019,27.1921923 23.2653365,27.1921923 C18.2553365,27.1921923 14.6112019,23.6247885 14.6112019,18.4238269 C14.6112019,13.1856538 18.2553365,9.61709615 23.2653365,9.61709615 Z M23.2653365,12.8435385 C20.4565865,12.8435385 18.4064904,15.0078654 18.4064904,18.4238269 C18.4064904,21.8028654 20.4565865,23.96575 23.2653365,23.96575 C26.1511058,23.96575 28.1628365,21.8028654 28.1628365,18.4238269 C28.1628365,15.0078654 26.1511058,12.8435385 23.2653365,12.8435385 Z M34.3501923,26.81275 L34.3501923,9.99630769 L38.1071154,9.99630769 L38.1071154,26.81275 L34.3501923,26.81275 Z M33.8557692,4.83371154 C33.8557692,3.54342308 34.9576923,2.51851923 36.2096154,2.51851923 C37.4626923,2.51851923 38.5634615,3.54342308 38.5634615,4.83371154 C38.5634615,6.16265385 37.4626923,7.22621154 36.2096154,7.22621154 C34.9576923,7.22621154 33.8557692,6.16265385 33.8557692,4.83371154 Z M41.3855673,11.0599519 C43.7394135,10.1489904 46.6251827,9.61706731 49.0915288,9.61706731 C53.3815288,9.61706731 56.1147019,11.2494712 56.1147019,15.994375 L56.1147019,26.8128365 L52.3949904,26.8128365 L52.3949904,16.3364904 C52.3949904,13.9070673 50.8765288,13.0330288 48.7880673,13.0330288 C47.459125,13.0330288 46.1319135,13.2228365 45.1439327,13.5265865 L45.1439327,26.8128365 L41.3855673,26.8128365 L41.3855673,11.0599519 Z M59.2616442,1 L63.0185673,1 L63.0185673,10.4525962 C63.8155865,10.0349038 65.3724135,9.61721154 66.8522212,9.61721154 C71.7113558,9.61721154 75.3554904,12.7294231 75.3554904,18.1201923 C75.3554904,23.5478846 71.7497212,27.1920192 65.5250096,27.1920192 C63.0955865,27.1920192 60.9699135,26.69875 59.2616442,26.0915385 L59.2616442,1 Z M63.0185673,23.6249038 C63.7400096,23.8516346 64.689625,23.9655769 65.6375096,23.9655769 C69.092125,23.9655769 71.5602019,22.0680769 71.5602019,18.1957692 C71.5602019,14.9306731 69.2447212,12.9948077 66.3976058,12.9948077 C64.9175096,12.9948077 63.778375,13.3752885 63.0185673,13.7929808 L63.0185673,23.6249038 Z M86.2109038,15.5382596 C86.2109038,13.7160481 84.8435962,12.8821058 82.9844615,12.8821058 C81.0483077,12.8821058 79.5298462,13.4509519 78.1256154,14.2479712 L78.1256154,10.982875 C79.6054231,10.1489327 81.5032115,9.61700962 83.5919615,9.61700962 C87.2730192,9.61700962 89.89225,11.1354712 89.89225,15.3484519 L89.89225,26.4706635 C88.2982115,26.8883558 86.0213846,27.1548942 84.1235962,27.1548942 C79.7580192,27.1548942 76.5687885,25.8262404 76.5687885,22.0295096 C76.5687885,18.6135481 79.4914808,16.9439327 84.3503269,16.9439327 L86.2109038,16.9439327 L86.2109038,15.5382596 Z M86.2109038,19.4489327 L84.6168654,19.4489327 C81.9964808,19.4489327 80.2885,20.2072981 80.2885,21.9155673 C80.2885,23.6619135 81.8836923,24.3449904 84.1608077,24.3449904 C84.7310962,24.3449904 85.5281154,24.2694135 86.2109038,24.1551827 L86.2109038,19.4489327 Z M92.6253654,22.257625 C94.1821923,23.4339712 96.0413269,24.1554135 97.7493077,24.1554135 C99.4203654,24.1554135 100.521135,23.5862788 100.521135,22.257625 C100.521135,20.8903173 99.5343077,20.3970481 97.3702692,19.8282019 C93.8784423,19.0311827 92.3971923,17.6269519 92.3971923,14.7039712 C92.3971923,11.2865673 94.9792115,9.61724038 98.3951731,9.61724038 C100.292962,9.61724038 101.811423,10.0349327 103.215654,10.9075288 L103.215654,14.3618558 C101.735846,13.2997404 100.292962,12.653875 98.5094038,12.653875 C96.877,12.653875 96.0044038,13.4508942 96.0044038,14.5516635 C96.0044038,15.6521442 96.7244038,16.2224327 98.6605577,16.7529135 C102.495654,17.5882981 104.165269,19.0311827 104.165269,22.0681058 C104.165269,25.5980096 101.470462,27.1920481 97.8263269,27.1920481 C95.8518077,27.1920481 93.8784423,26.6615673 92.6253654,25.8261827 L92.6253654,22.257625 Z M109.308654,19.2592981 L109.308654,19.334875 C109.536827,22.3331442 112.117404,23.9655481 114.736346,23.9655481 C117.051827,23.9655481 118.722596,23.4339135 120.392212,22.3331442 L120.392212,25.6366058 C118.87375,26.6987212 116.634135,27.1919904 114.47125,27.1919904 C109.233077,27.1919904 105.664519,23.8516058 105.664519,18.5378558 C105.664519,13.1857404 109.156058,9.61718269 113.788173,9.61718269 C118.684231,9.61718269 120.999712,12.7680481 120.999712,17.3603558 L120.999712,19.2592981 L109.308654,19.2592981 Z M117.469519,16.829875 C117.393942,14.2094904 116.103654,12.7680481 113.674231,12.7680481 C111.509904,12.7680481 109.916154,14.2865096 109.422596,16.829875 L117.469519,16.829875 Z"/>
</svg>

<svg xmlns="http://www.w3.org/2000/svg" width="122" height="28" viewBox="0 0 122 28"><path fill-rule="evenodd" d="M10.339 23.89c.935 0 1.799-.17 2.618-.49.007.016 1.674 2.606 1.698 2.624-1.509.811-3.086 1.168-4.81 1.168C4.72 27.192 1 23.815 1 18.424c0-5.43 3.91-8.807 8.845-8.807 1.757 0 3.142.381 4.537 1.127-.154.256-1.59 2.694-1.595 2.704a6.918 6.918 0 00-2.601-.49c-3.037 0-5.39 1.936-5.39 5.466 0 3.34 2.277 5.466 5.543 5.466zM23.265 9.617c5.049 0 8.693 3.569 8.693 8.807 0 5.2-3.644 8.768-8.693 8.768-5.01 0-8.654-3.567-8.654-8.768 0-5.238 3.644-8.807 8.654-8.807zm0 3.227c-2.808 0-4.859 2.164-4.859 5.58 0 3.379 2.05 5.542 4.86 5.542 2.885 0 4.897-2.163 4.897-5.542 0-3.416-2.012-5.58-4.898-5.58zM34.35 26.813V9.996h3.757v16.817H34.35zm-.494-21.98c0-1.29 1.102-2.314 2.354-2.314 1.253 0 2.353 1.024 2.353 2.315 0 1.329-1.1 2.392-2.353 2.392-1.252 0-2.354-1.063-2.354-2.392zm7.53 6.227c2.353-.911 5.24-1.443 7.706-1.443 4.29 0 7.023 1.632 7.023 6.377v10.819h-3.72V16.336c0-2.429-1.518-3.303-3.607-3.303-1.329 0-2.656.19-3.644.494v13.286h-3.758V11.06zM59.262 1h3.757v9.453c.797-.418 2.353-.836 3.833-.836 4.86 0 8.503 3.112 8.503 8.503 0 5.428-3.605 9.072-9.83 9.072a18.69 18.69 0 01-6.263-1.1V1zm3.757 22.625c.721.227 1.67.34 2.619.34 3.454 0 5.922-1.897 5.922-5.77 0-3.264-2.315-5.2-5.162-5.2-1.48 0-2.62.38-3.38.798v9.832zm23.192-8.087c0-1.822-1.367-2.656-3.227-2.656-1.936 0-3.454.569-4.858 1.366v-3.265c1.48-.834 3.377-1.366 5.466-1.366 3.681 0 6.3 1.518 6.3 5.731v11.123c-1.594.417-3.87.684-5.768.684-4.366 0-7.555-1.329-7.555-5.125 0-3.416 2.922-5.086 7.781-5.086h1.86v-1.406zm0 3.91h-1.594c-2.62 0-4.329.76-4.329 2.468 0 1.746 1.596 2.429 3.873 2.429.57 0 1.367-.076 2.05-.19V19.45zm6.414 2.81c1.557 1.176 3.416 1.897 5.124 1.897 1.671 0 2.772-.569 2.772-1.897 0-1.368-.987-1.861-3.15-2.43-3.493-.797-4.974-2.201-4.974-5.124 0-3.417 2.582-5.087 5.998-5.087 1.898 0 3.416.418 4.82 1.29v3.455c-1.48-1.062-2.922-1.708-4.706-1.708-1.632 0-2.505.797-2.505 1.898 0 1.1.72 1.67 2.657 2.2 3.835.836 5.504 2.28 5.504 5.316 0 3.53-2.695 5.124-6.339 5.124-1.974 0-3.948-.53-5.2-1.366v-3.568zm16.684-2.999v.076c.228 2.998 2.808 4.63 5.427 4.63 2.316 0 3.987-.531 5.656-1.632v3.304c-1.518 1.062-3.758 1.555-5.92 1.555-5.239 0-8.807-3.34-8.807-8.654 0-5.352 3.491-8.92 8.123-8.92 4.896 0 7.212 3.15 7.212 7.742v1.9h-11.691zm8.16-2.43c-.075-2.62-1.365-4.061-3.795-4.061-2.164 0-3.758 1.519-4.251 4.062h8.047z"/></svg>
